sites/Tartarya/images/main/hand-icon.svg

<svg width="30" height="30" viewBox="0 0 30 30" fill="none" xmlns="http://www.w3.org/2000/svg">
<path d="M12.514 6.36708e-05C12.4313 6.36708e-05 12.3504 0.00292043 12.2724 0.00799912C12.148 0.0160615 12.033 0.0324403 11.9239 0.0535804L9.70834 3.90031C9.97808 3.83028 10.2609 3.79315 10.5517 3.79315C11.9092 3.79315 13.0817 4.60434 13.6189 5.7671L16.1019 1.46012C15.8139 1.09408 15.1703 0.630646 14.393 0.347255C13.7759 0.122143 13.0931 -0.000190229 12.514 2.22037e-07V6.36708e-05ZM17.9454 1.11293C17.8451 1.11103 17.7509 1.11591 17.6622 1.12487L14.8407 6.02307C15.1464 5.93127 15.4702 5.88023 15.8049 5.88023C17.1239 5.88023 18.2712 6.64521 18.8284 7.75503L21.5629 3.0076C21.3015 2.56804 20.6811 2.01326 19.9294 1.64067C19.2679 1.3129 18.5225 1.12404 17.9454 1.11299L17.9454 1.11293ZM7.64908 2.97579C6.9583 2.98976 6.29598 3.235 5.58981 3.75156C4.92919 4.23461 4.24843 4.96683 3.54429 5.93178L6.57382 6.96529L8.7697 3.15437C8.42767 3.04125 8.1004 2.98341 7.78759 2.97579C7.74133 2.97471 7.69508 2.97491 7.64901 2.97579H7.64908ZM22.3074 4.09076L19.468 9.02064C19.8054 8.90529 20.1659 8.84009 20.5412 8.84009C21.8296 8.84009 22.9519 9.57714 23.5133 10.6514L25.8558 6.58846C25.63 6.04884 25.0386 5.36608 24.3231 4.87249C23.6322 4.39548 22.8375 4.11234 22.3075 4.09076H22.3074ZM10.5517 4.97953C9.33071 4.97953 8.35189 5.96022 8.35189 7.18558C8.35189 8.41094 9.33083 9.39164 10.5518 9.39164C11.7728 9.39164 12.7497 8.41113 12.7497 7.18558C12.7497 5.96022 11.7727 4.97953 10.5516 4.97953H10.5517ZM2.55223 6.84836C1.90213 10.0536 1.96537 13.3297 2.93652 16.1209C2.9483 16.1549 2.96009 16.1882 2.97213 16.2221L2.98404 16.2081L3.43549 16.8569C3.49075 16.9363 3.55018 17.0169 3.61164 17.0969C3.55861 14.4806 4.27758 11.4313 5.98379 8.01874L2.55223 6.84848V6.84836ZM15.8049 7.06655C14.5839 7.06655 13.607 8.04521 13.607 9.2707C13.607 10.4959 14.5839 11.4768 15.8049 11.4768C17.0259 11.4768 18.0047 10.4962 18.0047 9.2707C18.0047 8.04521 17.0259 7.06655 15.8048 7.06655H15.8049ZM26.5309 7.87203L23.8835 12.4667C23.8804 12.5056 23.878 12.5451 23.8736 12.5837C24.145 12.5071 24.4302 12.4647 24.7252 12.4647C26.0745 12.4647 27.2325 13.3249 27.6853 14.524L30 10.5086C29.7827 9.94617 29.2004 9.23312 28.4931 8.71122C27.8202 8.21478 27.0457 7.91133 26.5309 7.87209L26.5309 7.87203ZM7.28658 8.07632C5.17276 12.124 4.53964 15.5661 4.88484 18.2715C4.89327 18.3377 4.90296 18.4024 4.91253 18.4679C6.18294 19.6058 7.90195 20.7481 9.74389 21.7511C12.2891 23.1369 15.0724 24.2828 17.2247 24.9332C19.8877 23.9653 22.5664 21.9814 24.7747 18.809C24.7582 18.8093 24.7417 18.811 24.7252 18.811C22.9844 18.811 21.5609 17.3837 21.5609 15.6388C21.5609 15.5601 21.5652 15.4821 21.5709 15.4047C21.2462 15.5104 20.9001 15.5693 20.5413 15.5693C18.7478 15.5693 17.2723 14.1414 17.189 12.3634C16.7659 12.5551 16.2976 12.663 15.805 12.663C14.1782 12.663 12.8131 11.4981 12.4944 9.95893C11.9441 10.3483 11.2734 10.5779 10.5519 10.5779C8.99761 10.5779 7.67955 9.51365 7.28683 8.07626L7.28658 8.07632ZM20.5412 10.0265C19.3353 10.0265 18.3691 10.9946 18.3691 12.2048C18.3691 13.415 19.3353 14.383 20.5411 14.383C21.7471 14.383 22.7114 13.4152 22.7114 12.2047C22.7114 10.9945 21.7471 10.0265 20.5412 10.0265ZM24.725 13.653C23.6249 13.653 22.745 14.5346 22.745 15.6387C22.745 16.743 23.6249 17.6247 24.725 17.6247C25.8253 17.6247 26.7051 16.7432 26.7051 15.6388C26.7051 14.5346 25.8253 13.653 24.725 13.653V13.653ZM2.95629 18.1682C2.48595 18.7821 2.058 19.3852 1.66725 19.9756C1.8714 20.557 2.30784 21.2097 2.97612 21.878C3.85685 22.759 5.11865 23.6573 6.63908 24.4849C9.27431 25.919 12.687 27.142 16.2722 27.8197C16.4667 27.2519 16.6418 26.6547 16.793 26.0262C14.5522 25.3439 11.7742 24.2065 9.17762 22.7926C6.68179 21.4337 4.3832 19.8622 2.95622 18.1682H2.95629ZM0.91685 21.1718C0.635142 21.6489 0.379349 22.1156 0.148521 22.5744C0.241473 23.1502 0.653073 23.8561 1.38997 24.5881C2.16603 25.3588 3.2807 26.1495 4.6274 26.8774C7.23057 28.2842 10.6962 29.4625 14.2724 30H15.3733C15.5374 29.6623 15.6963 29.3116 15.8466 28.9485C12.2174 28.2426 8.78427 27.004 6.07301 25.5283C4.47882 24.6608 3.13452 23.7113 2.1405 22.7173C1.63918 22.2158 1.22238 21.7012 0.916977 21.1718H0.91685ZM0 24.8241V26.9885C0.0663401 27.1346 0.202252 27.3364 0.435615 27.5579C0.768899 27.8742 1.2706 28.2199 1.88306 28.5438C3.07934 29.1767 4.69849 29.7294 6.35795 30H9.04494C7.21967 29.4226 5.52543 28.7101 4.06506 27.9209C2.64492 27.1534 1.44592 26.3146 0.556383 25.4311C0.355335 25.2314 0.16943 25.0295 6.33273e-05 24.8242L0 24.8241ZM0 28.7462V30H2.17611C1.88084 29.87 1.59742 29.7344 1.3306 29.5933C0.828143 29.3273 0.379412 29.0457 0 28.7461V28.7462Z" fill="#5EA6CF"/>
</svg>

<svg width="30" height="30" fill="none" xmlns="http://www.w3.org/2000/svg"><path d="M12.514 0c-.083 0-.164.003-.242.008-.124.008-.239.024-.348.046L9.708 3.9c.27-.07.553-.107.844-.107 1.357 0 2.53.811 3.067 1.974l2.483-4.307c-.288-.366-.932-.83-1.709-1.113A5.705 5.705 0 0 0 12.514 0Zm5.431 1.113c-.1-.002-.194.003-.283.012l-2.821 4.898c.305-.092.63-.143.964-.143a3.39 3.39 0 0 1 3.023 1.875l2.735-4.747c-.261-.44-.882-.995-1.634-1.367-.661-.328-1.406-.517-1.984-.528ZM7.65 2.976c-.69.014-1.353.259-2.06.776-.66.483-1.34 1.215-2.045 2.18l3.03 1.033 2.196-3.81a3.384 3.384 0 0 0-1.121-.18ZM22.307 4.09l-2.839 4.93a3.31 3.31 0 0 1 1.073-.18 3.36 3.36 0 0 1 2.972 1.81l2.343-4.063c-.226-.54-.817-1.222-1.533-1.716-.69-.477-1.486-.76-2.015-.781Zm-11.755.889c-1.221 0-2.2.98-2.2 2.206 0 1.225.979 2.206 2.2 2.206 1.22 0 2.198-.98 2.198-2.206a2.193 2.193 0 0 0-2.198-2.206Zm-8 1.868c-.65 3.206-.587 6.482.385 9.273l.035.101.012-.014.451.649c.056.08.115.16.177.24-.053-2.616.666-5.666 2.372-9.078l-3.432-1.17Zm13.253.219a2.191 2.191 0 0 0-2.198 2.204c0 1.225.977 2.206 2.198 2.206 1.22 0 2.2-.98 2.2-2.206a2.193 2.193 0 0 0-2.2-2.204Zm10.726.805-2.647 4.595-.01.117a3.13 3.13 0 0 1 .851-.12c1.35 0 2.508.86 2.96 2.06L30 10.509c-.217-.563-.8-1.276-1.507-1.798-.673-.496-1.447-.8-1.962-.839Zm-19.244.204c-2.114 4.048-2.747 7.49-2.402 10.195.008.067.018.131.028.197 1.27 1.138 2.989 2.28 4.83 3.283 2.546 1.386 5.33 2.532 7.482 3.182 2.663-.968 5.341-2.952 7.55-6.124l-.05.002a3.177 3.177 0 0 1-3.154-3.406c-.325.105-.67.164-1.03.164a3.37 3.37 0 0 1-3.352-3.206c-.423.192-.891.3-1.384.3a3.394 3.394 0 0 1-3.31-2.704c-.55.39-1.222.619-1.943.619a3.399 3.399 0 0 1-3.265-2.502Zm13.254 1.95a2.167 2.167 0 0 0-2.172 2.179c0 1.21.966 2.178 2.172 2.178 1.206 0 2.17-.968 2.17-2.178s-.964-2.178-2.17-2.178Zm4.184 3.627c-1.1 0-1.98.882-1.98 1.986s.88 1.986 1.98 1.986 1.98-.882 1.98-1.986-.88-1.986-1.98-1.986ZM2.956 18.168c-.47.614-.898 1.217-1.289 1.808.204.581.64 1.234 1.31 1.902.88.881 2.142 1.78 3.662 2.607 2.635 1.434 6.048 2.657 9.633 3.335.195-.568.37-1.165.521-1.794-2.24-.682-5.019-1.82-7.615-3.233-2.496-1.36-4.795-2.93-6.222-4.625Zm-2.04 3.004c-.28.477-.537.944-.767 1.402.092.576.504 1.282 1.241 2.014.776.77 1.89 1.561 3.237 2.29 2.604 1.406 6.07 2.584 9.645 3.122h1.101c.164-.338.323-.688.474-1.052-3.63-.705-7.063-1.944-9.774-3.42-1.594-.867-2.938-1.817-3.933-2.81-.5-.502-.918-1.017-1.223-1.546ZM0 24.824v2.164c.066.147.202.348.436.57.333.316.835.662 1.447.986 1.196.633 2.815 1.185 4.475 1.456h2.687c-1.825-.577-3.52-1.29-4.98-2.08-1.42-.767-2.62-1.605-3.509-2.489A8.329 8.329 0 0 1 0 24.824Zm0 3.922V30h2.176c-.295-.13-.579-.266-.845-.407A8.787 8.787 0 0 1 0 28.746Z" fill="#5EA6CF"/></svg>
